static/img/kroki/43ec8c03477e6783e27107ed4262f912.svg

<?xml version="1.0" encoding="us-ascii" standalone="no"?><svg xmlns="http://www.w3.org/2000/svg" xmlns:xlink="http://www.w3.org/1999/xlink" contentStyleType="text/css" height="951px" preserveAspectRatio="none" style="width:387px;height:951px;" version="1.1" viewBox="0 0 387 951" width="387px" zoomAndPan="magnify"><defs/><g><!--class digitalocean_kubernetes_cluster--><g id="elem_digitalocean_kubernetes_cluster"><rect codeLine="22" fill="#3D176E" height="310.7578" id="digitalocean_kubernetes_cluster" rx="2.5" ry="2.5" style="stroke:#000D19;stroke-width:0.5;" width="311" x="7" y="633.84"/><ellipse cx="22" cy="653.7345" fill="#ADD1B2" rx="11" ry="11" style="stroke:#181818;stroke-width:1.0;"/><path d="M24.9688,659.3752 Q24.3906,659.672 23.75,659.8127 Q23.1094,659.9689 22.4063,659.9689 Q19.9063,659.9689 18.5781,658.3283 Q17.2656,656.672 17.2656,653.547 Q17.2656,650.422 18.5781,648.7658 Q19.9063,647.1095 22.4063,647.1095 Q23.1094,647.1095 23.75,647.2658 Q24.4063,647.422 24.9688,647.7189 L24.9688,650.4377 Q24.3438,649.8595 23.75,649.5939 Q23.1563,649.3127 22.5313,649.3127 Q21.1875,649.3127 20.5,650.3908 Q19.8125,651.4533 19.8125,653.547 Q19.8125,655.6408 20.5,656.7189 Q21.1875,657.7814 22.5313,657.7814 Q23.1563,657.7814 23.75,657.5158 Q24.3438,657.2345 24.9688,656.6564 L24.9688,659.3752 Z " fill="#000000"/><text fill="#D9B8FF" font-family="Helvetica" font-size="17" lengthAdjust="spacing" textLength="269" x="41" y="659.6198">digitalocean_kubernetes_cluster</text><line style="stroke:#000D19;stroke-width:0.5;" x1="8" x2="317" y1="673.6291" y2="673.6291"/><text fill="#D9B8FF" font-family="sans-serif" font-size="14" font-weight="bold" lengthAdjust="spacing" textLength="178" x="18" y="695.6242">auto_upgrade_enabled</text><text fill="#D9B8FF" font-family="sans-serif" font-size="14" lengthAdjust="spacing" textLength="65" x="196" y="695.6242">: boolean</text><text fill="#D9B8FF" font-family="sans-serif" font-size="14" font-weight="bold" lengthAdjust="spacing" textLength="111" x="18" y="721.9211">cluster_status</text><text fill="#D9B8FF" font-family="sans-serif" font-size="14" lengthAdjust="spacing" textLength="48" x="129" y="721.9211">: string</text><text fill="#D9B8FF" font-family="sans-serif" font-size="14" font-weight="bold" lengthAdjust="spacing" textLength="70" x="18" y="748.2179">endpoint</text><text fill="#D9B8FF" font-family="sans-serif" font-size="14" lengthAdjust="spacing" textLength="48" x="88" y="748.2179">: string</text><text fill="#D9B8FF" font-family="sans-serif" font-size="14" font-weight="bold" lengthAdjust="spacing" textLength="89" x="18" y="774.5148">ha_enabled</text><text fill="#D9B8FF" font-family="sans-serif" font-size="14" lengthAdjust="spacing" textLength="65" x="107" y="774.5148">: boolean</text><text fill="#D9B8FF" font-family="sans-serif" font-size="14" font-weight="bold" lengthAdjust="spacing" textLength="104" x="18" y="800.8117">ipv4_address</text><text fill="#D9B8FF" font-family="sans-serif" font-size="14" lengthAdjust="spacing" textLength="48" x="122" y="800.8117">: string</text><text fill="#D9B8FF" font-family="sans-serif" font-size="14" font-weight="bold" lengthAdjust="spacing" textLength="152" x="18" y="827.1086">k8s_cluster_subnet</text><text fill="#D9B8FF" font-family="sans-serif" font-size="14" lengthAdjust="spacing" textLength="48" x="170" y="827.1086">: string</text><text fill="#D9B8FF" font-family="sans-serif" font-size="14" font-weight="bold" lengthAdjust="spacing" textLength="155" x="18" y="853.4054">k8s_service_subnet</text><text fill="#D9B8FF" font-family="sans-serif" font-size="14" lengthAdjust="spacing" textLength="48" x="173" y="853.4054">: string</text><text fill="#D9B8FF" font-family="sans-serif" font-size="14" font-weight="bold" lengthAdjust="spacing" textLength="94" x="18" y="879.7023">k8s_version</text><text fill="#D9B8FF" font-family="sans-serif" font-size="14" lengthAdjust="spacing" textLength="48" x="112" y="879.7023">: string</text><text fill="#D9B8FF" font-family="sans-serif" font-size="14" font-weight="bold" lengthAdjust="spacing" textLength="132" x="18" y="905.9992">registry_enabled</text><text fill="#D9B8FF" font-family="sans-serif" font-size="14" lengthAdjust="spacing" textLength="65" x="150" y="905.9992">: boolean</text><text fill="#D9B8FF" font-family="sans-serif" font-size="14" font-weight="bold" lengthAdjust="spacing" textLength="189" x="18" y="932.2961">surge_upgrade_enabled</text><text fill="#D9B8FF" font-family="sans-serif" font-size="14" lengthAdjust="spacing" textLength="65" x="207" y="932.2961">: boolean</text></g><!--class digitalocean_resource--><g id="elem_digitalocean_resource"><rect codeLine="34" fill="#3D176E" height="74.0859" id="digitalocean_resource" rx="2.5" ry="2.5" style="stroke:#000D19;stroke-width:0.5;" width="223" x="157" y="438.76"/><ellipse cx="172" cy="458.6545" fill="#ADD1B2" rx="11" ry="11" style="stroke:#181818;stroke-width:1.0;"/><path d="M174.9688,464.2952 Q174.3906,464.592 173.75,464.7327 Q173.1094,464.8889 172.4063,464.8889 Q169.9063,464.8889 168.5781,463.2483 Q167.2656,461.592 167.2656,458.467 Q167.2656,455.342 168.5781,453.6858 Q169.9063,452.0295 172.4063,452.0295 Q173.1094,452.0295 173.75,452.1858 Q174.4063,452.342 174.9688,452.6389 L174.9688,455.3577 Q174.3438,454.7795 173.75,454.5139 Q173.1563,454.2327 172.5313,454.2327 Q171.1875,454.2327 170.5,455.3108 Q169.8125,456.3733 169.8125,458.467 Q169.8125,460.5608 170.5,461.6389 Q171.1875,462.7014 172.5313,462.7014 Q173.1563,462.7014 173.75,462.4358 Q174.3438,462.1545 174.9688,461.5764 L174.9688,464.2952 Z " fill="#000000"/><text fill="#D9B8FF" font-family="Helvetica" font-size="17" lengthAdjust="spacing" textLength="181" x="191" y="464.5398">digitalocean_resource</text><line style="stroke:#000D19;stroke-width:0.5;" x1="158" x2="379" y1="478.5491" y2="478.5491"/><text fill="#D9B8FF" font-family="sans-serif" font-size="14" font-weight="bold" lengthAdjust="spacing" textLength="27" x="168" y="500.5442">urn</text><text fill="#D9B8FF" font-family="sans-serif" font-size="14" lengthAdjust="spacing" textLength="48" x="195" y="500.5442">: string</text></g><!--class resource--><g id="elem_resource"><rect codeLine="37" fill="#3D176E" height="310.7578" id="resource" rx="2.5" ry="2.5" style="stroke:#000D19;stroke-width:0.5;" width="227" x="26" y="7"/><ellipse cx="94.75" cy="26.8945" fill="#ADD1B2" rx="11" ry="11" style="stroke:#181818;stroke-width:1.0;"/><path d="M97.7188,32.5352 Q97.1406,32.832 96.5,32.9727 Q95.8594,33.1289 95.1563,33.1289 Q92.6563,33.1289 91.3281,31.4883 Q90.0156,29.832 90.0156,26.707 Q90.0156,23.582 91.3281,21.9258 Q92.6563,20.2695 95.1563,20.2695 Q95.8594,20.2695 96.5,20.4258 Q97.1563,20.582 97.7188,20.8789 L97.7188,23.5977 Q97.0938,23.0195 96.5,22.7539 Q95.9063,22.4727 95.2813,22.4727 Q93.9375,22.4727 93.25,23.5508 Q92.5625,24.6133 92.5625,26.707 Q92.5625,28.8008 93.25,29.8789 Q93.9375,30.9414 95.2813,30.9414 Q95.9063,30.9414 96.5,30.6758 Q97.0938,30.3945 97.7188,29.8164 L97.7188,32.5352 Z " fill="#000000"/><text fill="#D9B8FF" font-family="Helvetica" font-size="17" lengthAdjust="spacing" textLength="71" x="120.25" y="32.7798">resource</text><line style="stroke:#000D19;stroke-width:0.5;" x1="27" x2="252" y1="46.7891" y2="46.7891"/><text fill="#D9B8FF" font-family="sans-serif" font-size="14" font-weight="bold" lengthAdjust="spacing" textLength="29" x="37" y="68.7842">age</text><text fill="#D9B8FF" font-family="sans-serif" font-size="14" lengthAdjust="spacing" textLength="66" x="66" y="68.7842">: duration</text><text fill="#D9B8FF" font-family="sans-serif" font-size="14" font-weight="bold" lengthAdjust="spacing" textLength="43" x="37" y="95.0811">atime</text><text fill="#D9B8FF" font-family="sans-serif" font-size="14" lengthAdjust="spacing" textLength="70" x="80" y="95.0811">: datetime</text><text fill="#D9B8FF" font-family="sans-serif" font-size="14" font-weight="bold" lengthAdjust="spacing" textLength="43" x="37" y="121.3779">ctime</text><text fill="#D9B8FF" font-family="sans-serif" font-size="14" lengthAdjust="spacing" textLength="70" x="80" y="121.3779">: datetime</text><text fill="#D9B8FF" font-family="sans-serif" font-size="14" font-weight="bold" lengthAdjust="spacing" textLength="14" x="37" y="147.6748">id</text><text fill="#D9B8FF" font-family="sans-serif" font-size="14" lengthAdjust="spacing" textLength="48" x="51" y="147.6748">: string</text><text fill="#D9B8FF" font-family="sans-serif" font-size="14" font-weight="bold" lengthAdjust="spacing" textLength="33" x="37" y="173.9717">kind</text><text fill="#D9B8FF" font-family="sans-serif" font-size="14" lengthAdjust="spacing" textLength="48" x="70" y="173.9717">: string</text><text fill="#D9B8FF" font-family="sans-serif" font-size="14" font-weight="bold" lengthAdjust="spacing" textLength="90" x="37" y="200.2686">last_access</text><text fill="#D9B8FF" font-family="sans-serif" font-size="14" lengthAdjust="spacing" textLength="66" x="127" y="200.2686">: duration</text><text fill="#D9B8FF" font-family="sans-serif" font-size="14" font-weight="bold" lengthAdjust="spacing" textLength="90" x="37" y="226.5654">last_update</text><text fill="#D9B8FF" font-family="sans-serif" font-size="14" lengthAdjust="spacing" textLength="66" x="127" y="226.5654">: duration</text><text fill="#D9B8FF" font-family="sans-serif" font-size="14" font-weight="bold" lengthAdjust="spacing" textLength="48" x="37" y="252.8623">mtime</text><text fill="#D9B8FF" font-family="sans-serif" font-size="14" lengthAdjust="spacing" textLength="70" x="85" y="252.8623">: datetime</text><text fill="#D9B8FF" font-family="sans-serif" font-size="14" font-weight="bold" lengthAdjust="spacing" textLength="43" x="37" y="279.1592">name</text><text fill="#D9B8FF" font-family="sans-serif" font-size="14" lengthAdjust="spacing" textLength="48" x="80" y="279.1592">: string</text><text fill="#D9B8FF" font-family="sans-serif" font-size="14" font-weight="bold" lengthAdjust="spacing" textLength="34" x="37" y="305.4561">tags</text><text fill="#D9B8FF" font-family="sans-serif" font-size="14" lengthAdjust="spacing" textLength="171" x="71" y="305.4561">: dictionary[string, string]</text></g><!--reverse link digitalocean_resource to digitalocean_kubernetes_cluster--><g id="link_digitalocean_resource_digitalocean_kubernetes_cluster"><path codeLine="49" d="M249.43,532.82 C239.75,561.26 227.46,597.36 215.2,633.4 " fill="none" id="digitalocean_resource-backto-digitalocean_kubernetes_cluster" style="stroke:#FFAF37;stroke-width:2.0;"/><polygon fill="none" points="243.06,530.81,256.13,514.13,256.32,535.32,243.06,530.81" style="stroke:#FFAF37;stroke-width:2.0;"/></g><!--reverse link resource to digitalocean_kubernetes_cluster--><g id="link_resource_digitalocean_kubernetes_cluster"><path codeLine="50" d="M136.64,338.47 C136.5,394.23 137.14,456.14 139.5,512.84 C141.13,552.03 144.07,594.27 147.31,633.62 " fill="none" id="resource-backto-digitalocean_kubernetes_cluster" style="stroke:#FFAF37;stroke-width:2.0;"/><polygon fill="none" points="129.65,338.8,136.73,318.83,143.65,338.86,129.65,338.8" style="stroke:#FFAF37;stroke-width:2.0;"/></g><!--reverse link resource to digitalocean_resource--><g id="link_resource_digitalocean_resource"><path codeLine="51" d="M211.59,337.4 C227.48,375.77 242.75,412.64 253.47,438.51 " fill="none" id="resource-backto-digitalocean_resource" style="stroke:#FFAF37;stroke-width:2.0;"/><polygon fill="none" points="204.81,340.33,203.62,319.18,217.74,334.97,204.81,340.33" style="stroke:#FFAF37;stroke-width:2.0;"/></g><!--SRC=[hPDDZzem48Rl_0fBUqD5WcvReEfb5sdLNbPLjxUgYYRs95X9x6WyPaK__djj0YXVmAKtyhwFPzuP3LkjK61LyrvKMAL8Rk8ARMeWgCG3aNtTsDAIkCiooEwNVVF96hu9F4E5uZEMEsGjeKzytsfP67HEl6rPZo2BdAmtgYdF1CO52mstg4q9pZqmaquzOokCMgUhBEkJ_Q9tzsgn_803p992EYBp-LmjrdtaPgkhSv-95_qBnQAzj6VBE8WvQ76WhgQCH2laOD2JVp7ZLr1AcroyRsdVcanaa3hwonQKVOrq1gLhjt6CX9RtDMu6K-5wfRBbAFpb4YpZveJIkMOehKGmIU73rHfaT8aiVQmXVa-cK_1i4r_d10eJD92MgARJZoArjWpF0d6a4yV0taNFXKCoUR3GgDfgmnrn2-DrTBrxbuHjKRZXpeDYTOwKE9-6Z0FR8Usqn4lsBlmVjJKTdJ3NuMC_7iPvol7Qt7_7TXYYMqyI3vlpr6vuuZi8v1WHvGauv8iAwwhHW37-ZWiUqRJg3gbDLmYzE04fZxjiTJWulewrUaurqiT08vqBC-HDHItZCw3zZyPxSsH-Xb77b_BfpsmsktLqa_-8dxn_]--></g></svg>

<svg xmlns="http://www.w3.org/2000/svg" width="387" height="951" preserveAspectRatio="none" style="width:387px;height:951px"><rect width="311" height="310.758" x="7" y="633.84" fill="#3D176E" rx="2.5" ry="2.5" style="stroke:#000d19;stroke-width:.5"/><circle cx="22" cy="653.735" r="11" fill="#ADD1B2" style="stroke:#181818;stroke-width:1"/><path d="M24.969 659.375q-.578.297-1.219.438-.64.156-1.344.156-2.5 0-3.828-1.64-1.312-1.657-1.312-4.782t1.312-4.781q1.328-1.656 3.828-1.656.703 0 1.344.156.656.156 1.219.453v2.719q-.625-.578-1.219-.844-.594-.281-1.219-.281-1.343 0-2.031 1.078-.688 1.062-.688 3.156 0 2.094.688 3.172.688 1.062 2.031 1.062.625 0 1.219-.265.594-.281 1.219-.86v2.72Z"/><text x="41" y="659.62" fill="#D9B8FF" font-family="Helvetica" font-size="17" textLength="269">digitalocean_kubernetes_cluster</text><path d="M8 673.629h309" style="stroke:#000d19;stroke-width:.5"/><text x="18" y="695.624" fill="#D9B8FF" font-family="sans-serif" font-size="14" font-weight="bold" textLength="178">auto_upgrade_enabled</text><text x="196" y="695.624" fill="#D9B8FF" font-family="sans-serif" font-size="14" textLength="65">: boolean</text><text x="18" y="721.921" fill="#D9B8FF" font-family="sans-serif" font-size="14" font-weight="bold" textLength="111">cluster_status</text><text x="129" y="721.921" fill="#D9B8FF" font-family="sans-serif" font-size="14" textLength="48">: string</text><text x="18" y="748.218" fill="#D9B8FF" font-family="sans-serif" font-size="14" font-weight="bold" textLength="70">endpoint</text><text x="88" y="748.218" fill="#D9B8FF" font-family="sans-serif" font-size="14" textLength="48">: string</text><text x="18" y="774.515" fill="#D9B8FF" font-family="sans-serif" font-size="14" font-weight="bold" textLength="89">ha_enabled</text><text x="107" y="774.515" fill="#D9B8FF" font-family="sans-serif" font-size="14" textLength="65">: boolean</text><text x="18" y="800.812" fill="#D9B8FF" font-family="sans-serif" font-size="14" font-weight="bold" textLength="104">ipv4_address</text><text x="122" y="800.812" fill="#D9B8FF" font-family="sans-serif" font-size="14" textLength="48">: string</text><text x="18" y="827.109" fill="#D9B8FF" font-family="sans-serif" font-size="14" font-weight="bold" textLength="152">k8s_cluster_subnet</text><text x="170" y="827.109" fill="#D9B8FF" font-family="sans-serif" font-size="14" textLength="48">: string</text><text x="18" y="853.405" fill="#D9B8FF" font-family="sans-serif" font-size="14" font-weight="bold" textLength="155">k8s_service_subnet</text><text x="173" y="853.405" fill="#D9B8FF" font-family="sans-serif" font-size="14" textLength="48">: string</text><text x="18" y="879.702" fill="#D9B8FF" font-family="sans-serif" font-size="14" font-weight="bold" textLength="94">k8s_version</text><text x="112" y="879.702" fill="#D9B8FF" font-family="sans-serif" font-size="14" textLength="48">: string</text><text x="18" y="905.999" fill="#D9B8FF" font-family="sans-serif" font-size="14" font-weight="bold" textLength="132">registry_enabled</text><text x="150" y="905.999" fill="#D9B8FF" font-family="sans-serif" font-size="14" textLength="65">: boolean</text><text x="18" y="932.296" fill="#D9B8FF" font-family="sans-serif" font-size="14" font-weight="bold" textLength="189">surge_upgrade_enabled</text><text x="207" y="932.296" fill="#D9B8FF" font-family="sans-serif" font-size="14" textLength="65">: boolean</text><rect width="223" height="74.086" x="157" y="438.76" fill="#3D176E" rx="2.5" ry="2.5" style="stroke:#000d19;stroke-width:.5"/><circle cx="172" cy="458.654" r="11" fill="#ADD1B2" style="stroke:#181818;stroke-width:1"/><path d="M174.969 464.295q-.578.297-1.219.438-.64.156-1.344.156-2.5 0-3.828-1.64-1.312-1.657-1.312-4.782t1.312-4.781q1.328-1.656 3.828-1.656.703 0 1.344.156.656.156 1.219.453v2.719q-.625-.579-1.219-.844-.594-.281-1.219-.281-1.344 0-2.031 1.078-.688 1.062-.688 3.156 0 2.094.688 3.172.688 1.062 2.031 1.062.625 0 1.219-.265.594-.281 1.219-.86v2.72Z"/><text x="191" y="464.54" fill="#D9B8FF" font-family="Helvetica" font-size="17" textLength="181">digitalocean_resource</text><path d="M158 478.549h221" style="stroke:#000d19;stroke-width:.5"/><text x="168" y="500.544" fill="#D9B8FF" font-family="sans-serif" font-size="14" font-weight="bold" textLength="27">urn</text><text x="195" y="500.544" fill="#D9B8FF" font-family="sans-serif" font-size="14" textLength="48">: string</text><rect width="227" height="310.758" x="26" y="7" fill="#3D176E" rx="2.5" ry="2.5" style="stroke:#000d19;stroke-width:.5"/><circle cx="94.75" cy="26.895" r="11" fill="#ADD1B2" style="stroke:#181818;stroke-width:1"/><path d="M97.719 32.535q-.578.297-1.219.438-.64.156-1.344.156-2.5 0-3.828-1.64-1.312-1.657-1.312-4.782t1.312-4.781q1.328-1.656 3.828-1.656.703 0 1.344.156.656.156 1.219.453v2.719q-.625-.578-1.219-.844-.594-.281-1.219-.281-1.344 0-2.031 1.078-.688 1.062-.688 3.156 0 2.094.688 3.172.688 1.062 2.031 1.062.625 0 1.219-.265.594-.281 1.219-.86v2.72Z"/><text x="120.25" y="32.78" fill="#D9B8FF" font-family="Helvetica" font-size="17" textLength="71">resource</text><path d="M27 46.789h225" style="stroke:#000d19;stroke-width:.5"/><text x="37" y="68.784" fill="#D9B8FF" font-family="sans-serif" font-size="14" font-weight="bold" textLength="29">age</text><text x="66" y="68.784" fill="#D9B8FF" font-family="sans-serif" font-size="14" textLength="66">: duration</text><text x="37" y="95.081" fill="#D9B8FF" font-family="sans-serif" font-size="14" font-weight="bold" textLength="43">atime</text><text x="80" y="95.081" fill="#D9B8FF" font-family="sans-serif" font-size="14" textLength="70">: datetime</text><text x="37" y="121.378" fill="#D9B8FF" font-family="sans-serif" font-size="14" font-weight="bold" textLength="43">ctime</text><text x="80" y="121.378" fill="#D9B8FF" font-family="sans-serif" font-size="14" textLength="70">: datetime</text><text x="37" y="147.675" fill="#D9B8FF" font-family="sans-serif" font-size="14" font-weight="bold" textLength="14">id</text><text x="51" y="147.675" fill="#D9B8FF" font-family="sans-serif" font-size="14" textLength="48">: string</text><text x="37" y="173.972" fill="#D9B8FF" font-family="sans-serif" font-size="14" font-weight="bold" textLength="33">kind</text><text x="70" y="173.972" fill="#D9B8FF" font-family="sans-serif" font-size="14" textLength="48">: string</text><text x="37" y="200.269" fill="#D9B8FF" font-family="sans-serif" font-size="14" font-weight="bold" textLength="90">last_access</text><text x="127" y="200.269" fill="#D9B8FF" font-family="sans-serif" font-size="14" textLength="66">: duration</text><text x="37" y="226.565" fill="#D9B8FF" font-family="sans-serif" font-size="14" font-weight="bold" textLength="90">last_update</text><text x="127" y="226.565" fill="#D9B8FF" font-family="sans-serif" font-size="14" textLength="66">: duration</text><text x="37" y="252.862" fill="#D9B8FF" font-family="sans-serif" font-size="14" font-weight="bold" textLength="48">mtime</text><text x="85" y="252.862" fill="#D9B8FF" font-family="sans-serif" font-size="14" textLength="70">: datetime</text><text x="37" y="279.159" fill="#D9B8FF" font-family="sans-serif" font-size="14" font-weight="bold" textLength="43">name</text><text x="80" y="279.159" fill="#D9B8FF" font-family="sans-serif" font-size="14" textLength="48">: string</text><text x="37" y="305.456" fill="#D9B8FF" font-family="sans-serif" font-size="14" font-weight="bold" textLength="34">tags</text><text x="71" y="305.456" fill="#D9B8FF" font-family="sans-serif" font-size="14" textLength="171">: dictionary[string, string]</text><g fill="none"><path d="M249.43 532.82c-9.68 28.44-21.97 64.54-34.23 100.58" style="stroke:#ffaf37;stroke-width:2"/><path d="m243.06 530.81 13.07-16.68.19 21.19-13.26-4.51z" style="stroke:#ffaf37;stroke-width:2"/></g><g fill="none"><path d="M136.64 338.47c-.14 55.76.5 117.67 2.86 174.37 1.63 39.19 4.57 81.43 7.81 120.78" style="stroke:#ffaf37;stroke-width:2"/><path d="m129.65 338.8 7.08-19.97 6.92 20.03-14-.06z" style="stroke:#ffaf37;stroke-width:2"/></g><g fill="none"><path d="M211.59 337.4c15.89 38.37 31.16 75.24 41.88 101.11" style="stroke:#ffaf37;stroke-width:2"/><path d="m204.81 340.33-1.19-21.15 14.12 15.79-12.93 5.36z" style="stroke:#ffaf37;stroke-width:2"/></g></svg>
